X: 15
T: De m'a-griefve maladie / Se je ne suis mari\'ee
N: Derived from Ano3019-De_ma_griefve_maladie__Se_je_ne_suis_mariee--Dijon_Chansonnier.krn
C: Anonymous
%%abc-version 2.0
%%abcx-abcm2ps-target-version 5.9.1 (29 Sep 2008)
%%abc-creator hum2abc beta
%%abcx-conversion-date 2019/02/16 20:18:27
%%abc-edited-by Jesse Rodin
%%abc-edited-by Chris Gage 02-25-2015
%%abcx-initial-encoding-date 2015/03/14/
%%humdrum-veritas 1697884520
%%humdrum-veritas-data 2706410976
%%linebreak <none>
%%barnumbers 0
L: 1/4
M: 2/1
Q: 1/2=120
%%staves [1 2 3 4]
V: 1 clef=treble
V: 2 clef=treble-8
V: 3 clef=treble-8
V: 4 clef=bass
K: F
[V:1] F6E2 | 
[V:2] B4B4 | 
[V:3] F4F4 | 
[V:4] B,,8 | 
[V:1] D4D4 | 
[V:2] B4B4 | 
[V:3] G4G4 | 
[V:4] B,,4B,,4 | 
[V:1] C4F4- | 
[V:2] c4c4 | 
[V:3] A4A4 | 
[V:4] A,,8 | 
[V:1] F2G2A4 | 
[V:2] d4d4 | 
[V:3] A4A4 | 
[V:4] D,6C,B,, | 
[V:1] A4G2c2- | 
[V:2] e4e4 | 
[V:3] c4c4 | 
[V:4] A,,4A,,4 | 
[V:1] c2B2A4- | 
[V:2] f6e2 | 
[V:3] c4c4 | 
[V:4] A,4F,4 | 
[V:1] A2F2G4 | 
[V:2] d8- | 
[V:3] B8 | 
[V:4] G,8 | 
[V:1] A8 | 
[V:2] d8 | 
[V:3] A8 | 
[V:4] D,8 | 
[V:1] F8 | 
[V:2] d6e2 | 
[V:3] z8 | 
[V:4] D,4B,,4 | 
[V:1] z4F4 | 
[V:2] c4z4 | 
[V:3] A4A4 | 
[V:4] C,4D,4 | 
[V:1] G6A2 | 
[V:2] d6c2 | 
[V:3] B6A2 | 
[V:4] B,,8 | 
[V:1] B6A2 | 
[V:2] B8 | 
[V:3] G4F4 | 
[V:4] z4B,,4 | 
[V:1] G4F4 | 
[V:2] =e4d4 | 
[V:3] E4F4 | 
[V:4] C,4D,4 | 
[V:1] _E4F4 | 
[V:2] c4d4- | 
[V:3] G4A4 | 
[V:4] _E,4D,4 | 
[V:1] G4F2F2- | 
[V:2] d2d6 | 
[V:3] B4A2F2 | 
[V:4] B,,4F,,4 | 
[V:1] F2D2E4 | 
[V:2] c8- | 
[V:3] G4G4 | 
[V:4] C,8 | 
[V:1] F8- | 
[V:2] c8 | 
[V:3] F8 | 
[V:4] F,,4F,4- | 
[V:1] F8 | 
[V:2] d4f4- | 
[V:3] z8 | 
[V:4] F,4D,4 | 
[V:1] z8 | 
[V:2] f4e4 | 
[V:3] A4A4 | 
[V:4] C,8 | 
[V:1] F8 | 
[V:2] d4B4 | 
[V:3] B6A2 | 
[V:4] B,,8 | 
[V:1] E4F4 | 
[V:2] z4A4 | 
[V:3] G4F4 | 
[V:4] C,4D,4 | 
[V:1] G6F2 | 
[V:2] G6A2 | 
[V:3] E8 | 
[V:4] =E,4C,4 | 
[V:1] D6E2 | 
[V:2] B4B4 | 
[V:3] F4G4 | 
[V:4] D,8 | 
[V:1] F4G4- | 
[V:2] c4d4 | 
[V:3] A4B4 | 
[V:4] A,,4G,,4 | 
[V:1] G2F2D4 | 
[V:2] e4f4- | 
[V:3] G4F4 | 
[V:4] C,4D,4 | 
[V:1] E4C4 | 
[V:2] f4e4 | 
[V:3] G8 | 
[V:4] C,8 | 
[V:1] C4A4- | 
[V:2] f6e2 | 
[V:3] F8 | 
[V:4] F,,8 | 
[V:1] A2G2F4 | 
[V:2] c8- | 
[V:3] z8 | 
[V:4] F,6E,D, | 
[V:1] E8 | 
[V:2] c8 | 
[V:3] A4A4 | 
[V:4] C,8 | 
[V:1] z4D4 | 
[V:2] d8 | 
[V:3] B6A2 | 
[V:4] B,,8 | 
[V:1] E4F4 | 
[V:2] z8 | 
[V:3] G4F4 | 
[V:4] C,4D,4 | 
[V:1] G2G4G2 | 
[V:2] _e4c4 | 
[V:3] _E4_E4 | 
[V:4] C,4_E,4 | 
[V:1] F4D2E2- | 
[V:2] d4B4 | 
[V:3] F4G4 | 
[V:4] D,2B,,4G,,2 | 
[V:1] E2F2D2G2- | 
[V:2] c4d4 | 
[V:3] A4B4 | 
[V:4] C,4B,,4 | 
[V:1] G2E2F4- | 
[V:2] c2c4B2 | 
[V:3] G4F4 | 
[V:4] _E,4D,4 | 
[V:1] F2D2E2DE | 
[V:2] c8 | 
[V:3] G8 | 
[V:4] C,8 | 
[V:1] F4F4 | 
[V:2] A4d4- | 
[V:3] F8 | 
[V:4] D,4F,4 | 
[V:1] G4G4 | 
[V:2] d4c4 | 
[V:3] z8 | 
[V:4] _E,8 | 
[V:1] A4A4 | 
[V:2] f6e2 | 
[V:3] F4F4 | 
[V:4] D,6C,2 | 
[V:1] B6AB | 
[V:2] d4d4 | 
[V:3] G4G4 | 
[V:4] B,,8 | 
[V:1] c6A2- | 
[V:2] c6d2 | 
[V:3] A4A4 | 
[V:4] A,,8- | 
[V:1] A2B2c4 | 
[V:2] e4e4 | 
[V:3] A4A4 | 
[V:4] A,,8 | 
[V:1] A3BA2GF | 
[V:2] c4f4 | 
[V:3] c4c4 | 
[V:4] z4A,4- | 
[V:1] E4A4- | 
[V:2] z4f4 | 
[V:3] c4c4 | 
[V:4] A,4F,4 | 
[V:1] A2F2G4 | 
[V:2] d8- | 
[V:3] B8 | 
[V:4] G,8 | 
[V:1] A8 | 
[V:2] d8 | 
[V:3] A8 | 
[V:4] D,8 | 
[V:1] F8 | 
[V:2] d6e2 | 
[V:3] z8 | 
[V:4] D,4B,,4 | 
[V:1] z4F4 | 
[V:2] c4z4 | 
[V:3] A4A4 | 
[V:4] C,4D,4 | 
[V:1] G6A2 | 
[V:2] d6c2 | 
[V:3] B6A2 | 
[V:4] B,,8 | 
[V:1] B6A2 | 
[V:2] B8 | 
[V:3] G4F4 | 
[V:4] z4B,,4 | 
[V:1] G4F4 | 
[V:2] =e4d4 | 
[V:3] E4F4 | 
[V:4] C,4D,4 | 
[V:1] _E4F4 | 
[V:2] c4d4- | 
[V:3] G4A4 | 
[V:4] _E,4D,4 | 
[V:1] G4F2F2- | 
[V:2] d2d6 | 
[V:3] B4A2F2 | 
[V:4] B,,4F,,4 | 
[V:1] F2D2E4 | 
[V:2] c8 | 
[V:3] G8 | 
[V:4] C,8 | 
[V:1] F8 |]  
[V:2] c8 |]  
[V:3] F8 |]  
[V:4] F,,8 |]  



